bakery/img/contacts/pin.svg

<svg width="31" height="31" viewBox="0 0 31 31" fill="none" xmlns="http://www.w3.org/2000/svg">
<path d="M15.2433 5C11.2493 5 8 8.27385 8 12.2979C8 17.292 14.482 24.6235 14.758 24.9331C15.0172 25.224 15.4698 25.2235 15.7285 24.9331C16.0045 24.6235 22.4865 17.292 22.4865 12.2979C22.4864 8.27385 19.2372 5 15.2433 5ZM15.2433 15.9697C13.2338 15.9697 11.599 14.3226 11.599 12.2979C11.599 10.2733 13.2338 8.62618 15.2433 8.62618C17.2527 8.62618 18.8874 10.2733 18.8874 12.298C18.8874 14.3226 17.2527 15.9697 15.2433 15.9697Z" fill="#412D22"/>
</svg>

<svg width="31" height="31" fill="none" xmlns="http://www.w3.org/2000/svg"><path d="M15.243 5C11.25 5 8 8.274 8 12.298c0 4.994 6.482 12.325 6.758 12.635.26.291.712.29.97 0 .277-.31 6.758-7.641 6.758-12.635C22.486 8.274 19.238 5 15.243 5zm0 10.97c-2.01 0-3.644-1.647-3.644-3.672 0-2.025 1.635-3.672 3.644-3.672 2.01 0 3.644 1.647 3.644 3.672 0 2.025-1.634 3.672-3.644 3.672z" fill="#412D22"/></svg>
